images/Logo-4.svg

<svg fill="none" height="44" viewBox="0 0 186 44" width="186" xmlns="http://www.w3.org/2000/svg" xmlns:xlink="http://www.w3.org/1999/xlink"><clipPath id="a"><path d="m0 0h34.9091v43.6364h-34.9091z"/></clipPath><g clip-path="url(#a)"><path clip-rule="evenodd" d="m4.48853 40.8485 3.82647-2.1939 1.5363-.8816 1.5083-.8696 2.3665-1.3562 3.7585-2.146 3.7625 2.146 2.3626 1.3562 1.5081.8696 1.5404.8816 3.7464 2.162 1.1391.6462 1.1111.6342 2.2543 1.2924v-20.7663l-4.5045-2.5888v15.6405l-3.0486-1.7551-4.4925-2.5689-1.7128-.9972-1.4117-.7978v-25.78843h-4.5048v26.40273l-3.1286 1.799-4.48844 2.5888-3.12863 1.7831v-16.2749l-4.48865207 2.5729v20.7823l2.23825207-1.2924 1.12325-.6342zm22.86357-10.5109v-31.229324h-4.4925v28.660524zm-15.2424-1.9705v-19.94463h-4.48863v22.53343z" fill="#bbc3cf" fill-rule="evenodd"/></g><g fill="#bbc3cf"><path d="m53.9411 31.091h3.9236l3.6167-12.4494h.1488l3.626 12.4494h3.9236l5.4483-19.0414h-4.3977l-3.1519 13.2583h-.1673l-3.468-13.2583h-3.7655l-3.4773 13.2304h-.158l-3.1519-13.2304h-4.3977z"/><path d="m76.7828 31.091h12.8678v-3.3193h-8.8419v-4.5464h8.1446v-3.3193h-8.1446v-4.5371h8.8047v-3.3193h-12.8306z"/><path d="m92.8141 31.091h12.1889v-3.3193h-8.1631v-15.7221h-4.0258z"/><path d="m104.125 12.0496 6.945 12.31v6.7314h3.998v-6.7314l6.945-12.31h-4.509l-4.342 8.2005h-.186l-4.342-8.2005z"/><path d="m124.688 15.3689h5.83v15.7221h3.979v-15.7221h5.83v-3.3193h-15.639z"/><path d="m146.928 12.0496h-4.026v19.0414h4.026z"/><path d="m167.041 18.716c-.53-4.3978-3.859-6.9267-8.266-6.9267-5.03 0-8.869 3.5517-8.869 9.781 0 6.2107 3.774 9.781 8.869 9.781 4.882 0 7.829-3.2448 8.266-6.75l-4.072-.0186c-.382 2.0362-1.981 3.2076-4.129 3.2076-2.891 0-4.853-2.1477-4.853-6.22 0-3.9607 1.934-6.22 4.881-6.22 2.204 0 3.794 1.2737 4.101 3.3657z"/><path d="m180.257 17.5259h3.859c-.056-3.3936-2.845-5.7366-7.085-5.7366-4.175 0-7.233 2.3058-7.215 5.7645-.009 2.8078 1.971 4.4163 5.188 5.188l2.074.5206c2.073.5021 3.226 1.0972 3.235 2.3802-.009 1.3946-1.329 2.343-3.375 2.343-2.092 0-3.598-.967-3.728-2.8729h-3.896c.102 4.1188 3.05 6.2479 7.671 6.2479 4.648 0 7.382-2.2221 7.391-5.7087-.009-3.1704-2.399-4.8533-5.709-5.5971l-1.71-.4091c-1.655-.3812-3.041-.9948-3.013-2.3616 0-1.2272 1.088-2.1291 3.059-2.1291 1.925 0 3.106.874 3.254 2.3709z"/></g></svg>

<svg width="186" height="44" viewBox="0 0 186 44" fill="none" xmlns="http://www.w3.org/2000/svg">
<g clip-path="url(#clip0_2614_13086)">
<path fill-rule="evenodd" clip-rule="evenodd" d="M4.48853 40.8485L8.315 38.6546L9.8513 37.773L11.3596 36.9034L13.7261 35.5472L17.4846 33.4012L21.2471 35.5472L23.6097 36.9034L25.1178 37.773L26.6582 38.6546L30.4046 40.8166L31.5437 41.4628L32.6548 42.097L34.9091 43.3894V22.6231L30.4046 20.0343V35.6748L27.356 33.9197L22.8635 31.3508L21.1507 30.3536L19.739 29.5558V3.76737H15.2342V30.1701L12.1056 31.9691L7.61716 34.5579L4.48853 36.341V20.0661L-0.00012207 22.639V43.4213L2.23813 42.1289L3.36138 41.4947L4.48853 40.8485ZM27.3521 30.3376V-0.891724H22.8596V27.7688L27.3521 30.3376ZM12.1097 28.3671V8.42247H7.62107V30.9559L12.1097 28.3671Z" fill="#BBC3CF"/>
</g>
<path d="M53.9411 31.091H57.8647L61.4814 18.6416H61.6302L65.2562 31.091H69.1798L74.6281 12.0496H70.2304L67.0785 25.3079H66.9112L63.4432 12.0496H59.6777L56.2004 25.28H56.0424L52.8905 12.0496H48.4928L53.9411 31.091Z" fill="#BBC3CF"/>
<path d="M76.7828 31.091H89.6506V27.7717H80.8087V23.2253H88.9533V19.906H80.8087V15.3689H89.6134V12.0496H76.7828V31.091Z" fill="#BBC3CF"/>
<path d="M92.8141 31.091H105.003V27.7717H96.8399V12.0496H92.8141V31.091Z" fill="#BBC3CF"/>
<path d="M104.125 12.0496L111.07 24.3596V31.091H115.068V24.3596L122.013 12.0496H117.504L113.162 20.2501H112.976L108.634 12.0496H104.125Z" fill="#BBC3CF"/>
<path d="M124.688 15.3689H130.518V31.091H134.497V15.3689H140.327V12.0496H124.688V15.3689Z" fill="#BBC3CF"/>
<path d="M146.928 12.0496H142.902V31.091H146.928V12.0496Z" fill="#BBC3CF"/>
<path d="M167.041 18.716C166.511 14.3182 163.182 11.7893 158.775 11.7893C153.745 11.7893 149.906 15.341 149.906 21.5703C149.906 27.781 153.68 31.3513 158.775 31.3513C163.657 31.3513 166.604 28.1065 167.041 24.6013L162.969 24.5827C162.587 26.6189 160.988 27.7903 158.84 27.7903C155.949 27.7903 153.987 25.6426 153.987 21.5703C153.987 17.6096 155.921 15.3503 158.868 15.3503C161.072 15.3503 162.662 16.624 162.969 18.716H167.041Z" fill="#BBC3CF"/>
<path d="M180.257 17.5259H184.116C184.06 14.1323 181.271 11.7893 177.031 11.7893C172.856 11.7893 169.798 14.0951 169.816 17.5538C169.807 20.3616 171.787 21.9701 175.004 22.7418L177.078 23.2624C179.151 23.7645 180.304 24.3596 180.313 25.6426C180.304 27.0372 178.984 27.9856 176.938 27.9856C174.846 27.9856 173.34 27.0186 173.21 25.1127H169.314C169.416 29.2315 172.364 31.3606 176.985 31.3606C181.633 31.3606 184.367 29.1385 184.376 25.6519C184.367 22.4815 181.977 20.7986 178.667 20.0548L176.957 19.6457C175.302 19.2645 173.916 18.6509 173.944 17.2841C173.944 16.0569 175.032 15.155 177.003 15.155C178.928 15.155 180.109 16.029 180.257 17.5259Z" fill="#BBC3CF"/>
<defs>
<clipPath id="clip0_2614_13086">
<rect width="34.9091" height="43.6364" fill="white"/>
</clipPath>
</defs>
</svg>
